X: 947
T: All Downhill From Here
R: reel
M: 4/4
K: Aminor
|:A>c ed e2 Bd|cB/d/ c/A/B/d/ e/d/c/A/ BG|A>c ed e2 Bd|
cB/A/ G/A/B/G/ [1 A/B/A/G/ A2:|2 A2 A/E/A/B/||
|:c>d ec B/A/B/c/ dG|A>B cB/A/ G/A/B/A/ GE|F>G Ac B/A/B/G/ FG/A/|
B/c/B/G/ F/G/B/d/ c/A/B/G/ FG/B/|c/B/A/c/ B/A/G/E/ [1 A3 B:|2 A4||

